X:1
T:Canon a 2
T:Stefano Pasino fl. 1675
T:No lyrics are supplied.
T:Canon a 2
T:Soprano & Alto in quinta
T:(c) Wim Looyestijn - 2108. May be freely copied for non-commercial use.
C:Stefano Pasino
C:fl. 1675
Z:(c) Wim Looyestijn - 2108. May be freely copied for non-commercial use.
%%score 1 2
L:1/8
Q:1/4=120
M:4/4
K:C
V:1 treble nm="MusicXML Part"
V:2 treble nm="MusicXML Part"
V:1
 z2 B2 c4 | A4 z2 B2 | c4 d4 |: G4 z2 A2 | B4 ^G4 | A4 z2 d2 | e2 B2 c4 | A4 (3B2 B2 ^F2 | G4 A4 | %9
 z2 B2 c4 | A4 z2 B2 | c4 d4 :| G8 |] %13
V:2
 z4 z2 E2 | F4 D4 | z2 E2 F4 |: G4 C4 | z2 D2 E4 | ^C4 D4 | z2 G2 A2 E2 | F4 D4 | (3E2 E2 B,2 C4 | %9
 D4 z2 E2 | F4 D4 | z2 E2 F4 :| G8 |] %13

